icons/svgs/signs-post-outline.svg

<svg width="24" height="24" viewBox="0 0 24 24" fill="none" xmlns="http://www.w3.org/2000/svg">
<path d="M11.0625 2.9375C11.0625 2.42969 11.4531 2 12 2C12.5078 2 12.9375 2.42969 12.9375 2.9375V3.25H19.1875C19.3828 3.25 19.5391 3.36719 19.6562 3.48438L21.6875 5.98438C21.8438 6.21875 21.8438 6.57031 21.6875 6.76562L19.6562 9.26562C19.5391 9.42188 19.3828 9.5 19.1875 9.5H12.9375V10.75H19.5C20.1641 10.75 20.75 11.3359 20.75 12V15.75C20.75 16.4531 20.1641 17 19.5 17H12.9375V21.0625C12.9375 21.6094 12.5078 22 12 22C11.4531 22 11.0625 21.6094 11.0625 21.0625V17H4.77344C4.57812 17 4.42188 16.9219 4.30469 16.7656L2.3125 14.2656C2.11719 14.0703 2.11719 13.7188 2.3125 13.4844L4.30469 10.9844C4.42188 10.8672 4.57812 10.75 4.77344 10.75H11.0625V9.5H4.5C3.79688 9.5 3.25 8.95312 3.25 8.25V4.5C3.25 3.83594 3.79688 3.25 4.5 3.25H11.0625V2.9375ZM5.125 5.125V7.625H18.5625L19.5781 6.375L18.5625 5.125H5.125ZM18.875 15.125V12.625H5.39844L4.38281 13.875L5.39844 15.125H18.875Z" fill="black"/>
</svg>

<svg xmlns="http://www.w3.org/2000/svg" width="24" height="24" fill="currentColor" class="icon-signs-post-outline" viewBox="0 0 24 24">
  <mask id="a" width="20" height="20" x="2" y="2" maskUnits="userSpaceOnUse" style="mask-type:alpha">
    <path d="M11.063 2.938c0-.508.39-.938.937-.938a.95.95 0 0 1 .938.938v.312h6.25c.195 0 .351.117.468.234l2.032 2.5c.156.235.156.586 0 .782l-2.032 2.5a.56.56 0 0 1-.468.234h-6.25v1.25H19.5c.664 0 1.25.586 1.25 1.25v3.75c0 .703-.586 1.25-1.25 1.25h-6.562v4.063c0 .546-.43.937-.938.937-.547 0-.937-.39-.937-.937V17h-6.29a.56.56 0 0 1-.468-.234l-1.992-2.5c-.196-.196-.196-.547 0-.782l1.992-2.5c.117-.117.273-.234.468-.234h6.29V9.5H4.5c-.703 0-1.25-.547-1.25-1.25V4.5c0-.664.547-1.25 1.25-1.25h6.563zM5.125 5.124v2.5h13.438l1.015-1.25-1.015-1.25zm13.75 10v-2.5H5.398l-1.015 1.25 1.015 1.25z"/>
  </mask>
  <g mask="url(#a)">
    <path d="M0 0h24v24H0z"/>
  </g>
</svg>
